src/lib/packages/icons/src/assets/filled/video-eye.svg

<svg width="24" height="24" viewBox="0 0 24 24" fill="none" xmlns="http://www.w3.org/2000/svg">
<path d="M10.52 12C10.52 12.552 10.073 13 9.52002 13C8.96802 13 8.51489 12.552 8.51489 12C8.51489 11.448 8.95801 11 9.51001 11H9.52002C10.072 11 10.52 11.448 10.52 12ZM20.7759 6.9729L18.6121 8.70996C18.5411 8.76696 18.5 8.85309 18.5 8.94409V15.0559C18.5 15.1469 18.5411 15.233 18.6121 15.29L20.7759 17.0271C21.2689 17.4231 22 17.0719 22 16.4399V7.56006C22 6.92806 21.2689 6.5779 20.7759 6.9729ZM17 8V16C17 18 16 19 14 19H5C3 19 2 18 2 16V8C2 6 3 5 5 5H14C16 5 17 6 17 8ZM13.3191 11.3411C12.7741 10.4241 11.549 8.875 9.5 8.875C7.451 8.875 6.22691 10.4241 5.68091 11.3411C5.43891 11.7471 5.43891 12.2529 5.68091 12.6589C6.22591 13.5759 7.451 15.125 9.5 15.125C11.549 15.125 12.7731 13.5759 13.3191 12.6589C13.5611 12.2529 13.5611 11.7471 13.3191 11.3411Z" fill="currentColor"/>
</svg>

<svg xmlns="http://www.w3.org/2000/svg" width="24" height="24" fill="none"><path fill="currentColor" d="M10.52 12a1 1 0 0 1-1 1 1.005 1.005 0 0 1-1.005-1c0-.552.443-1 .995-1h.01a1 1 0 0 1 1 1Zm10.256-5.027L18.612 8.71a.3.3 0 0 0-.112.234v6.112a.3.3 0 0 0 .112.234l2.164 1.737A.753.753 0 0 0 22 16.44V7.56a.753.753 0 0 0-1.224-.587ZM17 8v8c0 2-1 3-3 3H5c-2 0-3-1-3-3V8c0-2 1-3 3-3h9c2 0 3 1 3 3Zm-3.68 3.341c-.546-.917-1.771-2.466-3.82-2.466s-3.273 1.55-3.82 2.466a1.287 1.287 0 0 0 0 1.318c.546.917 1.771 2.466 3.82 2.466s3.273-1.55 3.82-2.466a1.287 1.287 0 0 0 0-1.318Z"/></svg>
